packages/components/icon/src/assets/icons/cart.svg

<svg width="24" height="24" viewBox="0 0 24 24" fill="none" xmlns="http://www.w3.org/2000/svg">
<path fill-rule="evenodd" clip-rule="evenodd" d="M6.25207 4C6.44008 4 6.61364 4.06147 6.77273 4.1844C6.93182 4.30734 7.04029 4.47004 7.09814 4.67252L7.57541 6.58161H19.3554L19.4855 6.19112C19.5434 6.0031 19.6519 5.85124 19.811 5.73554C19.97 5.61983 20.1364 5.56198 20.3099 5.56198C20.4401 5.56198 20.5269 5.56921 20.5702 5.58368C20.7583 5.64153 20.9137 5.75 21.0367 5.90909C21.1596 6.06818 21.2211 6.24897 21.2211 6.45145C21.2211 6.49483 21.2066 6.57438 21.1777 6.69008L18.8781 14.3048C18.8347 14.4928 18.7371 14.6482 18.5852 14.7712C18.4334 14.8941 18.2562 14.9556 18.0537 14.9556H8.50826C8.30578 14.9556 8.12139 14.8905 7.95506 14.7603C7.78874 14.6302 7.68388 14.4711 7.6405 14.2831L5.53616 5.77893H2.88946C2.64359 5.77893 2.43389 5.69215 2.26033 5.5186C2.08678 5.34504 2 5.13533 2 4.88946C2 4.64359 2.08678 4.43389 2.26033 4.26033C2.43389 4.08678 2.64359 4 2.88946 4H6.25207ZM17.3812 13.1767L17.4246 13.0031L18.8347 8.33884H8.0093L9.18079 13.1767H17.3812ZM9.83161 9.87913H13.0424V11.6581H10.2438L9.83161 9.87913ZM13.8017 9.87913H16.9473L16.47 11.6581H13.78L13.8017 9.87913ZM10.6126 15.9535C11.1043 15.9535 11.5274 16.1271 11.8817 16.4742C12.2361 16.8213 12.4132 17.2407 12.4132 17.7324C12.4132 18.2386 12.2397 18.6653 11.8926 19.0124C11.5455 19.3595 11.1188 19.5331 10.6126 19.5331C10.1209 19.5331 9.69783 19.3559 9.34349 19.0015C8.98915 18.6472 8.81198 18.2242 8.81198 17.7324C8.81198 17.2407 8.98915 16.8213 9.34349 16.4742C9.69783 16.1271 10.1209 15.9535 10.6126 15.9535ZM16.0579 15.9535C16.5496 15.9535 16.9726 16.1271 17.327 16.4742C17.6813 16.8213 17.8585 17.2407 17.8585 17.7324C17.8585 18.2242 17.6813 18.6472 17.327 19.0015C16.9726 19.3559 16.5496 19.5331 16.0579 19.5331C15.5661 19.5331 15.1431 19.3595 14.7887 19.0124C14.4344 18.6653 14.2572 18.2386 14.2572 17.7324C14.2572 17.2407 14.4344 16.8213 14.7887 16.4742C15.1431 16.1271 15.5661 15.9535 16.0579 15.9535Z" fill="currentColor"/>
</svg>

<svg viewBox="0 0 24 24" fill="none" xmlns="http://www.w3.org/2000/svg"><path fill-rule="evenodd" clip-rule="evenodd" d="M6.252 4c.188 0 .362.061.52.184.16.123.268.286.326.489l.477 1.909h11.78l.13-.39a.863.863 0 0 1 .326-.456.836.836 0 0 1 .499-.174c.13 0 .217.007.26.022a.92.92 0 0 1 .651.867c0 .044-.014.123-.043.24l-2.3 7.614a.823.823 0 0 1-.293.466.82.82 0 0 1-.531.185H8.508a.876.876 0 0 1-.553-.196.834.834 0 0 1-.314-.477L5.536 5.78H2.89a.857.857 0 0 1-.629-.26.857.857 0 0 1-.26-.63.86.86 0 0 1 .26-.629A.857.857 0 0 1 2.89 4h3.362Zm11.13 9.177.043-.174 1.41-4.664H8.009l1.172 4.838h8.2Zm-7.55-3.298h3.21v1.78h-2.798l-.412-1.78Zm3.97 0h3.145l-.477 1.78h-2.69l.022-1.78Zm-3.19 6.075c.492 0 .915.173 1.27.52.354.347.531.767.531 1.258 0 .507-.173.933-.52 1.28a1.74 1.74 0 0 1-1.28.521c-.492 0-.915-.177-1.27-.532a1.732 1.732 0 0 1-.531-1.269c0-.491.177-.91.531-1.258a1.75 1.75 0 0 1 1.27-.52Zm5.446 0c.492 0 .915.173 1.269.52.354.347.531.767.531 1.258 0 .492-.177.915-.531 1.27a1.732 1.732 0 0 1-1.27.531 1.75 1.75 0 0 1-1.268-.52 1.722 1.722 0 0 1-.532-1.28c0-.492.177-.912.532-1.259a1.75 1.75 0 0 1 1.269-.52Z" fill="currentColor"/></svg>
